evrofasad/img/icons/geo.svg

<svg width="15" height="21" viewBox="0 0 15 21" fill="none" xmlns="http://www.w3.org/2000/svg">
<g clip-path="url(#clip0_292:10)">
<path d="M10.2039 10.0373L10.2039 10.0373C9.4812 10.7405 8.53438 11.0898 7.59229 11.0898C6.6504 11.0898 5.70328 10.7406 4.9808 10.0373H10.2039ZM10.2039 10.0373C11.6534 8.62668 11.6534 6.32672 10.2039 4.91598L10.2039 4.91594M10.2039 10.0373L10.2039 4.91594M10.2039 4.91594C9.50473 4.23563 8.57549 3.86195 7.59229 3.86195C6.60921 3.86195 5.67977 4.23542 4.98078 4.91598M10.2039 4.91594L4.98078 4.91598M4.98078 4.91598C3.53131 6.3267 3.53127 8.62662 4.98074 10.0373L4.98078 4.91598ZM7.59429 20.4605C7.39651 20.2221 7.13099 19.8971 6.81868 19.5026C6.12035 18.6203 5.19016 17.3928 4.26097 16.0101C3.33071 14.6259 2.4078 13.0955 1.71912 11.6067C1.02586 10.108 0.592285 8.6981 0.592285 7.54169C0.592285 3.8056 3.7201 0.742188 7.59229 0.742188C11.4646 0.742188 14.5923 3.80559 14.5923 7.54169C14.5923 8.63319 14.1616 10.0102 13.4682 11.5007C12.7803 12.9794 11.8584 14.5186 10.9293 15.9193C10.0013 17.3184 9.07226 18.5699 8.37481 19.4721C8.05983 19.8795 7.79248 20.2152 7.59429 20.4605Z" stroke="#1C3F97"/>
</g>
<defs>
<clipPath id="clip0_292:10">
<rect width="15" height="21" fill="white"/>
</clipPath>
</defs>
</svg>

<svg width="15" height="21" fill="none" xmlns="http://www.w3.org/2000/svg"><g clip-path="url(#clip0_292:10)"><path d="M10.204 10.037h0a3.736 3.736 0 01-2.612 1.053c-.942 0-1.889-.35-2.611-1.053h5.223zm0 0a3.56 3.56 0 000-5.121h0m0 5.121V4.916m0 0a3.725 3.725 0 00-2.612-1.054 3.72 3.72 0 00-2.611 1.054m5.223 0H4.98m0 0a3.56 3.56 0 000 5.121V4.916zM7.594 20.46a56.616 56.616 0 01-3.333-4.45c-.93-1.384-1.853-2.914-2.542-4.403C1.026 10.108.592 8.698.592 7.542c0-3.736 3.128-6.8 7-6.8 3.873 0 7 3.064 7 6.8 0 1.091-.43 2.468-1.124 3.959-.688 1.478-1.61 3.018-2.539 4.418a61.525 61.525 0 01-3.335 4.541z" stroke="#1C3F97"/></g><defs><clipPath id="clip0_292:10"><path fill="#fff" d="M0 0h15v21H0z"/></clipPath></defs></svg>
